X:196
T:Blind Bartimaeus
%%stretchlast false
M:3/4
L:1/4
K:C clef=C1
"^I"[C,E,C] [C,G,CE]3/2 "^ii7³"[C,F,CD]/ | "^I"[C,E,C] "^V7"[G,,F,B,D]2 | "^iii¹"[G,,G,B,E] "^V7"[G,,F,B,D]2 | "^vi"[A,,E,A,C] "^V"[G,,G,B,D]2 | "^I"[C,G,CE] [C,E,CG]2 | [C,E,CG] [C,E,CG] "^IV²"[C,F,CA] | "^I"[C,E,CG] "^I²"[G,,G,CE]2 | "^V7"[G,,F,B,D] "^I"[C,E,C]2 | [C,E,CG] "^IV"[F,CA]2 | [F,CA] [F,CA]3/2 "^V"[F,G,CB]/ | "^IV"[F,,A,Cc] "^I"[C,CEG]2 | [C,CEG] [C,G,CE]2 | [C,E,CG] "^IV"[F,CA]2 | [F,CA] [F,CA]3/2 "^V"[F,G,CB]/ | "^IV"[F,,A,Cc] "^I"[C,E,CG]2 | [C,E,CG] [C,G,CE] "^V"[G,,G,B,D] | "^I"[C,E,C] [C,G,CE]3/2 "^ii7³"[C,F,CD]/ | "^I"[C,E,C] "^V7"[G,,F,B,D]2 | "^iii¹"[G,,G,B,E] "^V7"[G,,F,B,D]2 | "^vi"[A,,E,A,C] "^V"[G,,G,B,D]2 | "^I"[C,G,CE] [C,E,CG]2 | [C,E,CG] [C,E,CG] "^IV²"[C,F,CA] | "^I"[C,E,CG] "^I²"[G,,G,CE]2 | "^V7"[G,,F,B,D] "^I"[C,E,C]2 |]
